X: 23034
T: Last Of The Twins, The
R: hornpipe
M: 4/4
K: Gmajor
(3(def)|:gdBd edBA|GBdg edBG|
FGAB cded|cBAG A3 f|gdBd edBA|
GBdg edBG|FGAB cdef|1 gd BA G2 fa:|2 gd BA G2 (3(def)||
|:gfga gfed|edef edBG|FGAB cded|
cBAG A2 (3(def)|gfga gfed|edef edBG|
FGAB cdef|1 g2 gf g2 (3(def):|2 g2 gf g4||

